icons/Electron.svg

<svg xmlns="http://www.w3.org/2000/svg" width="256" height="256" fill="none" viewBox="0 0 256 256"><rect width="256" height="256" fill="#2B2E3A" rx="60"/><path fill="#9FEAF9" d="M100.768 70.772C74.763 66.036 54.201 70.993 46.006 85.187C39.891 95.779 41.639 109.822 50.246 124.833C50.4159 125.145 50.6464 125.419 50.924 125.641C51.2015 125.862 51.5204 126.026 51.8621 126.123C52.2038 126.219 52.5614 126.247 52.9138 126.203C53.2662 126.16 53.6064 126.047 53.9144 125.87C54.2225 125.693 54.4921 125.457 54.7076 125.175C54.923 124.892 55.0799 124.57 55.1691 124.226C55.2583 123.883 55.278 123.525 55.2269 123.173C55.1759 122.822 55.0552 122.484 54.872 122.18C47.12 108.658 45.611 96.539 50.625 87.854C57.433 76.063 75.773 71.641 99.812 76.019C100.503 76.134 101.211 75.9727 101.784 75.5699C102.357 75.1671 102.748 74.5552 102.874 73.8663C102.999 73.1773 102.849 72.4666 102.455 71.8877C102.061 71.3088 101.455 70.908 100.768 70.772V70.772ZM63.769 143.079C74.284 154.634 87.945 165.473 103.525 174.467C141.248 196.247 181.408 202.068 201.2 188.573C201.496 188.379 201.75 188.127 201.948 187.833C202.146 187.54 202.283 187.209 202.352 186.862C202.421 186.515 202.42 186.157 202.349 185.81C202.278 185.463 202.139 185.134 201.939 184.841C201.74 184.548 201.484 184.298 201.187 184.106C200.89 183.913 200.557 183.782 200.208 183.719C199.86 183.656 199.502 183.663 199.157 183.74C198.811 183.817 198.484 183.962 198.195 184.167C180.481 196.245 142.333 190.715 106.192 169.849C91.078 161.123 77.849 150.627 67.714 139.489C67.4787 139.228 67.1942 139.017 66.877 138.866C66.5597 138.716 66.2159 138.63 65.8652 138.613C65.5145 138.595 65.1639 138.648 64.8334 138.766C64.5029 138.885 64.1991 139.067 63.9395 139.304C63.6798 139.54 63.4693 139.825 63.3202 140.143C63.171 140.461 63.086 140.805 63.0702 141.156C63.0544 141.507 63.1079 141.857 63.2278 142.187C63.3478 142.517 63.5316 142.82 63.769 143.079V143.079Z"/><path fill="#9FEAF9" d="M194.886 139.835C211.914 119.719 217.859 99.487 209.681 85.323C203.664 74.9 190.943 69.397 174.036 69.177C173.335 69.178 172.663 69.4548 172.165 69.9474C171.667 70.44 171.382 71.1089 171.373 71.8095C171.364 72.5101 171.631 73.1862 172.116 73.6915C172.602 74.1968 173.267 74.4908 173.967 74.51C189.172 74.708 200.132 79.449 205.063 87.99C211.855 99.755 206.553 117.797 190.815 136.389C190.584 136.656 190.408 136.965 190.298 137.301C190.188 137.636 190.145 137.989 190.172 138.341C190.199 138.693 190.296 139.035 190.457 139.349C190.617 139.664 190.839 139.943 191.108 140.171C191.377 140.398 191.689 140.571 192.025 140.677C192.362 140.784 192.716 140.823 193.067 140.791C193.418 140.76 193.76 140.66 194.072 140.495C194.385 140.331 194.661 140.107 194.886 139.835V139.835ZM151.125 71.66C135.729 74.959 119.341 81.409 103.603 90.495C64.661 112.978 39.258 146.131 42.786 170.17C42.833 170.52 42.949 170.857 43.1273 171.161C43.3055 171.466 43.5425 171.732 43.8244 171.945C44.1063 172.157 44.4276 172.311 44.7696 172.399C45.1116 172.486 45.4675 172.505 45.8167 172.453C46.1659 172.402 46.5015 172.282 46.8039 172.1C47.1064 171.918 47.3697 171.678 47.5787 171.393C47.7876 171.109 47.938 170.786 48.0211 170.443C48.1043 170.1 48.1185 169.744 48.063 169.395C44.93 148.051 69.01 116.626 106.27 95.114C121.537 86.299 137.405 80.054 152.242 76.875C152.589 76.8066 152.919 76.6697 153.213 76.4724C153.507 76.2751 153.759 76.0212 153.953 75.7257C154.148 75.4302 154.282 75.0988 154.347 74.751C154.413 74.4032 154.408 74.0458 154.334 73.6998C154.26 73.3537 154.118 73.0259 153.916 72.7353C153.713 72.4448 153.456 72.1974 153.157 72.0075C152.858 71.8177 152.525 71.6892 152.176 71.6295C151.827 71.5699 151.47 71.5802 151.125 71.66Z"/><path fill="#9FEAF9" d="M88.036 186.835C96.94 211.695 111.505 227.002 127.883 227.002C139.828 227.002 150.879 218.859 159.497 204.524C159.684 204.224 159.808 203.889 159.865 203.54C159.921 203.191 159.907 202.835 159.824 202.491C159.741 202.147 159.591 201.824 159.381 201.539C159.172 201.254 158.909 201.013 158.606 200.831C158.303 200.649 157.966 200.529 157.617 200.478C157.267 200.427 156.91 200.446 156.568 200.534C156.226 200.622 155.904 200.777 155.622 200.99C155.34 201.203 155.104 201.471 154.926 201.776C147.181 214.659 137.668 221.668 127.883 221.668C114.278 221.668 101.287 208.016 93.058 185.038C92.9453 184.702 92.7666 184.391 92.5323 184.125C92.2981 183.858 92.013 183.641 91.6938 183.486C91.3746 183.331 91.0277 183.241 90.6734 183.222C90.3191 183.203 89.9645 183.255 89.6304 183.374C89.2963 183.494 88.9895 183.679 88.7278 183.918C88.4662 184.158 88.2549 184.448 88.1065 184.77C87.9582 185.092 87.8756 185.441 87.8636 185.795C87.8517 186.15 87.9106 186.504 88.037 186.835H88.036ZM169.358 181.972C173.968 167.244 176.443 150.254 176.443 132.549C176.443 88.3701 160.98 50.2861 138.956 40.5071C138.313 40.2376 137.589 40.2309 136.941 40.4885C136.293 40.746 135.771 41.2473 135.488 41.8848C135.205 42.5223 135.183 43.2454 135.427 43.899C135.671 44.5525 136.161 45.0846 136.792 45.3811C156.435 54.1041 171.109 90.2471 171.109 132.549C171.109 149.726 168.712 166.179 164.269 180.379C164.159 180.715 164.116 181.069 164.144 181.422C164.172 181.774 164.269 182.117 164.431 182.432C164.592 182.746 164.815 183.025 165.085 183.253C165.356 183.48 165.669 183.652 166.006 183.757C166.343 183.863 166.698 183.9 167.05 183.867C167.402 183.835 167.744 183.732 168.056 183.566C168.368 183.4 168.644 183.174 168.867 182.9C169.091 182.626 169.258 182.311 169.359 181.972H169.358ZM219.582 179.36C219.582 172.311 213.868 166.597 206.819 166.597C199.77 166.597 194.056 172.311 194.056 179.36C194.056 186.409 199.77 192.123 206.819 192.123C213.868 192.123 219.582 186.409 219.582 179.36ZM214.249 179.36C214.249 180.336 214.057 181.302 213.683 182.203C213.31 183.105 212.763 183.924 212.073 184.614C211.383 185.304 210.564 185.851 209.662 186.225C208.761 186.598 207.795 186.79 206.819 186.79C205.843 186.79 204.877 186.598 203.976 186.225C203.074 185.851 202.255 185.304 201.565 184.614C200.875 183.924 200.328 183.105 199.955 182.203C199.581 181.302 199.389 180.336 199.389 179.36C199.389 177.39 200.172 175.5 201.565 174.106C202.959 172.713 204.848 171.93 206.819 171.93C208.79 171.93 210.679 172.713 212.073 174.106C213.466 175.5 214.249 177.39 214.249 179.36ZM48.763 192.123C55.813 192.123 61.527 186.409 61.527 179.36C61.527 172.311 55.812 166.597 48.763 166.597C41.715 166.597 36 172.311 36 179.36C36 186.409 41.715 192.123 48.763 192.123ZM48.763 186.79C46.7924 186.79 44.9026 186.007 43.5092 184.614C42.1158 183.221 41.333 181.331 41.333 179.36C41.333 177.39 42.1158 175.5 43.5092 174.106C44.9026 172.713 46.7924 171.93 48.763 171.93C50.7336 171.93 52.6234 172.713 54.0168 174.106C55.4102 175.5 56.193 177.39 56.193 179.36C56.193 181.331 55.4102 183.221 54.0168 184.614C52.6234 186.007 50.7336 186.79 48.763 186.79V186.79Z"/><path fill="#9FEAF9" d="M127.883 53.526C134.932 53.526 140.646 47.812 140.646 40.763C140.646 33.714 134.932 28 127.883 28C120.834 28 115.12 33.714 115.12 40.763C115.12 47.812 120.834 53.526 127.883 53.526V53.526ZM127.883 48.193C125.912 48.193 124.023 47.4102 122.629 46.0168C121.236 44.6234 120.453 42.7336 120.453 40.763C120.453 38.7924 121.236 36.9026 122.629 35.5092C124.023 34.1158 125.912 33.333 127.883 33.333C129.854 33.333 131.743 34.1158 133.137 35.5092C134.53 36.9026 135.313 38.7924 135.313 40.763C135.313 42.7336 134.53 44.6234 133.137 46.0168C131.743 47.4102 129.854 48.193 127.883 48.193V48.193ZM129.832 141.575C124.847 142.652 119.936 139.484 118.857 134.499C118.34 132.105 118.795 129.604 120.122 127.546C121.449 125.488 123.539 124.041 125.933 123.523C130.918 122.446 135.829 125.614 136.909 130.599C137.986 135.584 134.818 140.496 129.832 141.575Z"/></svg>

<svg xmlns="http://www.w3.org/2000/svg" width="256" height="256" fill="none" viewBox="0 0 256 256"><rect width="256" height="256" fill="#2B2E3A" rx="60"/><path fill="#9FEAF9" d="M100.77 70.77C74.77 66.04 54.2 71 46 85.2c-6.12 10.59-4.37 24.63 4.24 39.64a2.67 2.67 0 1 0 4.62-2.65c-7.75-13.52-9.26-25.64-4.24-34.33 6.8-11.79 25.14-16.2 49.18-11.83a2.67 2.67 0 0 0 .96-5.25m-37 72.3c10.51 11.56 24.17 22.4 39.76 31.4 37.72 21.78 77.88 27.6 97.67 14.1a2.66 2.66 0 1 0-3-4.4c-17.72 12.08-55.87 6.55-92-14.32-15.12-8.73-28.35-19.22-38.49-30.36a2.67 2.67 0 1 0-3.94 3.59"/><path fill="#9FEAF9" d="M194.89 139.84c17.02-20.12 22.97-40.35 14.8-54.52-6.03-10.42-18.75-15.92-35.65-16.14a2.67 2.67 0 0 0-.07 5.33c15.2.2 26.16 4.94 31.1 13.48 6.78 11.77 1.48 29.8-14.25 48.4a2.66 2.66 0 0 0 .29 3.78 2.67 2.67 0 0 0 3.78-.33m-43.76-68.18c-15.4 3.3-31.79 9.75-47.53 18.84-38.94 22.48-64.34 55.63-60.81 79.67a2.66 2.66 0 0 0 4.01 1.93 2.7 2.7 0 0 0 1.26-2.7c-3.13-21.35 20.95-52.77 58.21-74.29 15.27-8.81 31.14-15.06 45.97-18.23a2.67 2.67 0 1 0-1.12-5.22"/><path fill="#9FEAF9" d="M88.04 186.84c8.9 24.85 23.46 40.16 39.84 40.16 11.95 0 23-8.14 31.62-22.48a2.67 2.67 0 0 0-2.93-3.99 2.7 2.7 0 0 0-1.64 1.25c-7.75 12.88-17.26 19.89-27.05 19.89-13.6 0-26.6-13.65-34.82-36.63a2.66 2.66 0 1 0-5.02 1.8m81.32-4.87c4.6-14.73 7.08-31.72 7.08-49.42 0-44.18-15.46-82.26-37.48-92.04a2.67 2.67 0 0 0-2.17 4.87c19.65 8.72 34.32 44.87 34.32 87.17 0 17.18-2.4 33.63-6.84 47.83a2.67 2.67 0 1 0 5.09 1.6m50.22-2.61a12.76 12.76 0 1 0-25.52 0 12.76 12.76 0 0 0 25.52 0m-5.33 0a7.4 7.4 0 0 1-10.27 6.86 7.44 7.44 0 1 1 10.27-6.86M48.76 192.12a12.76 12.76 0 1 0 0-25.52 12.76 12.76 0 0 0 0 25.52m0-5.33a7.43 7.43 0 1 1 0-14.86 7.43 7.43 0 0 1 0 14.86"/><path fill="#9FEAF9" d="M127.88 53.53a12.76 12.76 0 1 0 0-25.53 12.76 12.76 0 0 0 0 25.53m0-5.34a7.43 7.43 0 1 1 0-14.86 7.43 7.43 0 0 1 0 14.86m1.95 93.39a9.23 9.23 0 1 1-3.9-18.06 9.23 9.23 0 0 1 3.9 18.05"/></svg>
